X: 86
T:Morair Sim
T:Lord Simon
N:regimental march of the Lovat Scouts, believed to date from 1715
M:2/4
L:1/8
K:GLyd
G>G GB|AG  AB|G>G GB |dB g2 |
G>G GB|AG  AB|e>d B>c|dB g2:|
d>e ge|ae  ge|d>e ge |ae g2 |
d>e ge|ae  gf|e>d B>c|dB g2 |
d>e ge|ae  gf|d>e ge |ae g2 |
d>e ge|a>g fa|e>d B>c|dB g2|]

This mediaeval Latin hymn from the then-Norse culture of Orkney is in
the Lydian mode.  It's famous as one of the earliest known tunes to be
harmonized in thirds.

